logos/gatsby.svg

<?xml version="1.0" encoding="UTF-8"?>
<svg width="106.1" height="28" version="1.1" viewBox="0 0 106.1 28" xmlns="http://www.w3.org/2000/svg">
 <title>Gatsby</title>
 <g>
  <path d="m62.9 12h2.8v10h-2.8v-1.3c-1 1.5-2.3 1.6-3.1 1.6-3.1 0-5.1-2.4-5.1-5.3 0-3 2-5.3 4.9-5.3 0.8 0 2.3 0.1 3.2 1.6v-1.3zm-5.2 5c0 1.6 1.1 2.8 2.8 2.8 1.6 0 2.8-1.2 2.8-2.8s-1.1-2.8-2.8-2.8c-1.6 0-2.8 1.2-2.8 2.8z"/>
  <path d="m71.2 14.4v7.6h-2.8v-7.6h-1.1v-2.4h1.1v-3.4h2.8v3.4h1.9v2.4z"/>
  <path d="m79.7 14.4c-0.7-0.6-1.3-0.7-1.6-0.7-0.7 0-1.1 0.3-1.1 0.8 0 0.3 0.1 0.6 0.9 0.9l0.7 0.2c0.8 0.3 2 0.6 2.5 1.4 0.3 0.4 0.5 1 0.5 1.7 0 0.9-0.3 1.8-1.1 2.5s-1.8 1.1-3 1.1c-2.1 0-3.2-1-3.9-1.7l1.5-1.7c0.6 0.6 1.4 1.2 2.2 1.2s1.4-0.4 1.4-1.1c0-0.6-0.5-0.9-0.9-1l-0.6-0.2c-0.7-0.3-1.5-0.6-2.1-1.2-0.5-0.5-0.8-1.1-0.8-1.9 0-1 0.5-1.8 1-2.3 0.8-0.6 1.8-0.7 2.6-0.7 0.7 0 1.9 0.1 3.2 1.1z"/>
  <path d="m85.8 13.3c1-1.4 2.4-1.6 3.2-1.6 2.9 0 4.9 2.3 4.9 5.3s-2 5.3-5 5.3c-0.6 0-2.1-0.1-3.2-1.6v1.3h-2.7v-16.8h2.8zm-0.3 3.7c0 1.6 1.1 2.8 2.8 2.8 1.6 0 2.8-1.2 2.8-2.8s-1.1-2.8-2.8-2.8-2.8 1.2-2.8 2.8z"/>
  <path d="m98.5 20.5-4.8-8.5h3.3l3.1 5.7 2.8-5.7h3.2l-8 15.3h-3.2z"/>
  <path d="m54 13.7h-2.8-4.2v2.8h3.7c-0.6 1.9-2 3.2-4.6 3.2-2.9 0-5-2.4-5-5.3s2-5.4 4.9-5.4c1.6 0 3.2 0.8 4.2 2.1l2.3-1.5c-1.5-2.1-3.9-3.3-6.5-3.3-4.4 0-8 3.6-8 8.1s3.4 8.1 8 8.1 8-3.6 8-8.1c0.1-0.3 0-0.5 0-0.7z"/>
 </g>
 <g fill="#fff">
  <path d="m25 14h-7v2h4.8c-0.7 3-2.9 5.5-5.8 6.5l-11.5-11.5c1.2-3.5 4.6-6 8.5-6 3 0 5.7 1.5 7.4 3.8l1.5-1.3c-2-2.7-5.2-4.5-8.9-4.5-5.2 0-9.6 3.7-10.7 8.6l13.2 13.2c4.8-1.2 8.5-5.6 8.5-10.8z"/>
  <path d="m3 14.1c0 2.8 1.1 5.5 3.2 7.6s4.9 3.2 7.6 3.2z"/>
 </g>
 <path d="m14 0c-7.7 0-14 6.3-14 14s6.3 14 14 14 14-6.3 14-14-6.3-14-14-14zm-7.8 21.8c-2.1-2.1-3.2-4.9-3.2-7.6l10.9 10.8c-2.8-0.1-5.6-1.1-7.7-3.2zm10.2 2.9-13.1-13.1c1.1-4.9 5.5-8.6 10.7-8.6 3.7 0 6.9 1.8 8.9 4.5l-1.5 1.3c-1.7-2.3-4.4-3.8-7.4-3.8-3.9 0-7.2 2.5-8.5 6l11.5 11.5c2.9-1 5.1-3.5 5.8-6.5h-4.8v-2h7c0 5.2-3.7 9.6-8.6 10.7z" fill="#639"/>
</svg>

<?xml version="1.0" encoding="UTF-8"?>
<svg width="5.6875rem" height="1.5rem" viewBox="0 0 106 28" class="css-etwj4y" xmlns="http://www.w3.org/2000/svg" xmlns:xlink="http://www.w3.org/1999/xlink">
    <!-- Generator: Sketch 55.1 (78136) - https://sketchapp.com -->
    <title>Gatsby</title>
    <g fill="#000000"><path d="M62.9,12h2.8v10h-2.8v-1.3c-1,1.5-2.3,1.6-3.1,1.6c-3.1,0-5.1-2.4-5.1-5.3c0-3,2-5.3,4.9-5.3c0.8,0,2.3,0.1,3.2,1.6V12z M57.7,17c0,1.6,1.1,2.8,2.8,2.8c1.6,0,2.8-1.2,2.8-2.8c0-1.6-1.1-2.8-2.8-2.8C58.9,14.2,57.7,15.4,57.7,17z"></path><path d="M71.2,14.4V22h-2.8v-7.6h-1.1V12h1.1V8.6h2.8V12h1.9v2.4H71.2z"></path><path d="M79.7,14.4c-0.7-0.6-1.3-0.7-1.6-0.7c-0.7,0-1.1,0.3-1.1,0.8c0,0.3,0.1,0.6,0.9,0.9l0.7,0.2c0.8,0.3,2,0.6,2.5,1.4 c0.3,0.4,0.5,1,0.5,1.7c0,0.9-0.3,1.8-1.1,2.5c-0.8,0.7-1.8,1.1-3,1.1c-2.1,0-3.2-1-3.9-1.7l1.5-1.7c0.6,0.6,1.4,1.2,2.2,1.2 c0.8,0,1.4-0.4,1.4-1.1c0-0.6-0.5-0.9-0.9-1l-0.6-0.2c-0.7-0.3-1.5-0.6-2.1-1.2c-0.5-0.5-0.8-1.1-0.8-1.9c0-1,0.5-1.8,1-2.3 c0.8-0.6,1.8-0.7,2.6-0.7c0.7,0,1.9,0.1,3.2,1.1L79.7,14.4z"></path><path d="M85.8,13.3c1-1.4,2.4-1.6,3.2-1.6c2.9,0,4.9,2.3,4.9,5.3c0,3-2,5.3-5,5.3c-0.6,0-2.1-0.1-3.2-1.6V22H83V5.2h2.8V13.3z M85.5,17c0,1.6,1.1,2.8,2.8,2.8c1.6,0,2.8-1.2,2.8-2.8c0-1.6-1.1-2.8-2.8-2.8C86.6,14.2,85.5,15.4,85.5,17z"></path><path d="M98.5,20.5L93.7,12H97l3.1,5.7l2.8-5.7h3.2l-8,15.3h-3.2L98.5,20.5z"></path><path d="M54,13.7h-2.8c0,0-4.2,0-4.2,0v2.8h3.7c-0.6,1.9-2,3.2-4.6,3.2c-2.9,0-5-2.4-5-5.3S43.1,9,46,9c1.6,0,3.2,0.8,4.2,2.1 l2.3-1.5C51,7.5,48.6,6.3,46,6.3c-4.4,0-8,3.6-8,8.1s3.4,8.1,8,8.1s8-3.6,8-8.1C54.1,14.1,54,13.9,54,13.7z"></path></g>
    <g><g fill="#ffffff"><path d="M25,14h-7v2h4.8c-0.7,3-2.9,5.5-5.8,6.5L5.5,11c1.2-3.5,4.6-6,8.5-6c3,0,5.7,1.5,7.4,3.8l1.5-1.3 C20.9,4.8,17.7,3,14,3C8.8,3,4.4,6.7,3.3,11.6l13.2,13.2C21.3,23.6,25,19.2,25,14z"></path><path d="M3,14.1c0,2.8,1.1,5.5,3.2,7.6c2.1,2.1,4.9,3.2,7.6,3.2L3,14.1z"></path></g><path d="M14,0C6.3,0,0,6.3,0,14s6.3,14,14,14s14-6.3,14-14S21.7,0,14,0z M6.2,21.8c-2.1-2.1-3.2-4.9-3.2-7.6L13.9,25 C11.1,24.9,8.3,23.9,6.2,21.8z M16.4,24.7L3.3,11.6C4.4,6.7,8.8,3,14,3c3.7,0,6.9,1.8,8.9,4.5l-1.5,1.3C19.7,6.5,17,5,14,5 c-3.9,0-7.2,2.5-8.5,6L17,22.5c2.9-1,5.1-3.5,5.8-6.5H18v-2h7C25,19.2,21.3,23.6,16.4,24.7z" fill="#663399"></path></g>
</svg>
